大富翁/shop.svg

<svg height="30.0px" stroke-miterlimit="10" style="fill-rule:nonzero;clip-rule:evenodd;stroke-linecap:round;stroke-linejoin:round;" version="1.1" viewBox="0 0 30 30" width="30.0px" xml:space="preserve" xmlns="http://www.w3.org/2000/svg" xmlns:xlink="http://www.w3.org/1999/xlink">
<defs/>
<g id="图层-1">
<path d="M27.8571 2.14286C27.8571 1.71429 27.5714 1.42857 27.1429 1.42857L2.85714 1.42857C2.42857 1.42857 2.14286 1.71429 2.14286 2.14286L2.14286 28.5714L27.8571 28.5714L27.8571 2.14286Z" fill="#85d4ff" fill-rule="nonzero" opacity="1" stroke="none"/>
<path d="M2.14286 27.1429L27.8571 27.1429L27.8571 28.5714L2.14286 28.5714L2.14286 27.1429ZM26.4286 12.1429L27.8571 12.1429L27.8571 27.1429L26.4286 27.1429L26.4286 12.1429ZM2.14286 12.1429L3.57143 12.1429L3.57143 27.1429L2.14286 27.1429L2.14286 12.1429Z" fill="#cfd8dc" fill-rule="nonzero" opacity="1" stroke="none"/>
<path d="M7.5 2.85714C6.90827 2.85714 6.42857 3.33684 6.42857 3.92857C6.42857 4.52031 6.90827 5 7.5 5C8.09173 5 8.57143 4.52031 8.57143 3.92857C8.57143 3.33684 8.09173 2.85714 7.5 2.85714ZM10.3571 2.85714C9.76541 2.85714 9.28571 3.33684 9.28571 3.92857C9.28571 4.52031 9.76541 5 10.3571 5C10.9489 5 11.4286 4.52031 11.4286 3.92857C11.4286 3.33684 10.9489 2.85714 10.3571 2.85714ZM4.64286 2.85714C4.05112 2.85714 3.57143 3.33684 3.57143 3.92857C3.57143 4.52031 4.05112 5 4.64286 5C5.23459 5 5.71429 4.52031 5.71429 3.92857C5.71429 3.33684 5.23459 2.85714 4.64286 2.85714Z" fill="#90a4ae" fill-rule="nonzero" opacity="1" stroke="none"/>
<path d="M15.7143 15.7143L25 15.7143L25 23.5714L15.7143 23.5714L15.7143 15.7143Z" fill="#e3f2fd" fill-rule="nonzero" opacity="1" stroke="none"/>
<path d="M16.4286 16.4286L24.2857 16.4286L24.2857 22.8571L16.4286 22.8571L16.4286 16.4286Z" fill="#1e88e5" fill-rule="nonzero" opacity="1" stroke="none"/>
<path d="M15 10C13.8165 10 12.8571 10.9594 12.8571 12.1429C12.8571 13.3263 13.8165 14.2857 15 14.2857C16.1835 14.2857 17.1429 13.3263 17.1429 12.1429C17.1429 10.9594 16.1835 10 15 10ZM6.42857 10C5.2451 10 4.28571 10.9594 4.28571 12.1429C4.28571 13.3263 5.2451 14.2857 6.42857 14.2857C7.61204 14.2857 8.57143 13.3263 8.57143 12.1429C8.57143 10.9594 7.61204 10 6.42857 10ZM23.5714 10C22.388 10 21.4286 10.9594 21.4286 12.1429C21.4286 13.3263 22.388 14.2857 23.5714 14.2857C24.7549 14.2857 25.7143 13.3263 25.7143 12.1429C25.7143 10.9594 24.7549 10 23.5714 10Z" fill="#558b2f" fill-rule="nonzero" opacity="1" stroke="none"/>
<path d="M12.8571 6.42857L17.1429 6.42857L17.1429 12.1429L12.8571 12.1429L12.8571 6.42857ZM4.28571 12.1429L8.57143 12.1429L9.28571 6.42857L5.71429 6.42857L4.28571 12.1429ZM25.7143 12.1429L21.4286 12.1429L20.7143 6.42857L24.2857 6.42857L25.7143 12.1429Z" fill="#7cb342" fill-rule="nonzero" opacity="1" stroke="none"/>
<path d="M10.7143 10C9.53082 10 8.57143 10.9594 8.57143 12.1429C8.57143 13.3263 9.53082 14.2857 10.7143 14.2857C11.8978 14.2857 12.8571 13.3263 12.8571 12.1429C12.8571 10.9594 11.8978 10 10.7143 10ZM2.14286 10C3.35714 10 4.28571 10.9286 4.28571 12.1429C4.28571 13.3571 3.35714 14.2857 2.14286 14.2857C0.928571 14.2857 0 13.3571 0 12.1429L2.14286 10ZM19.2857 10C18.1022 10 17.1429 10.9594 17.1429 12.1429C17.1429 13.3263 18.1022 14.2857 19.2857 14.2857C20.4692 14.2857 21.4286 13.3263 21.4286 12.1429C21.4286 10.9594 20.4692 10 19.2857 10ZM27.8571 10C26.6429 10 25.7143 10.9286 25.7143 12.1429C25.7143 13.3571 26.6429 14.2857 27.8571 14.2857C29.0714 14.2857 30 13.3571 30 12.1429L27.8571 10Z" fill="#ffa000" fill-rule="nonzero" opacity="1" stroke="none"/>
<path d="M8.57143 12.1429L12.8571 12.1429L12.8571 6.42857L9.28571 6.42857L8.57143 12.1429ZM0 12.1429L4.28571 12.1429L5.71429 6.42857L2.14286 6.42857L0 12.1429ZM21.4286 12.1429L17.1429 12.1429L17.1429 6.42857L20.7143 6.42857L21.4286 12.1429ZM30 12.1429L25.7143 12.1429L24.2857 6.42857L27.8571 6.42857L30 12.1429Z" fill="#ffc107" fill-rule="nonzero" opacity="1" stroke="none"/>
<path d="M5 15.7143L12.8571 15.7143L12.8571 27.1429L5 27.1429L5 15.7143Z" fill="#455a64" fill-rule="nonzero" opacity="1" stroke="none"/>
<path d="M6.42857 22.1429L6.42857 23.5714C6.42857 23.7857 6.57143 23.9286 6.78571 23.9286C7 23.9286 7.14286 23.7857 7.14286 23.5714L7.14286 22.1429C7.14286 21.9286 7 21.7857 6.78571 21.7857C6.57143 21.7857 6.42857 21.9286 6.42857 22.1429Z" fill="#90a4ae" fill-rule="nonzero" opacity="1" stroke="none"/>
</g>
</svg>

<svg height="30" viewBox="0 0 30 30" stroke-miterlimit="10" width="30" xmlns="http://www.w3.org/2000/svg" clip-rule="evenodd" stroke-linecap="round" stroke-linejoin="round"><path d="M27.857 2.143c0-.429-.286-.714-.714-.714H2.857c-.428 0-.714.285-.714.714V28.57h25.714V2.143z" fill="#85d4ff"/><path d="M2.143 27.143h25.714v1.428H2.143v-1.428zm24.286-15h1.428v15H26.43v-15zm-24.286 0H3.57v15H2.143v-15z" fill="#cfd8dc"/><path d="M7.5 2.857A1.071 1.071 0 107.5 5a1.071 1.071 0 000-2.143zm2.857 0a1.071 1.071 0 100 2.143 1.071 1.071 0 000-2.143zm-5.714 0a1.071 1.071 0 100 2.143 1.071 1.071 0 000-2.143z" fill="#90a4ae"/><path d="M15.714 15.714H25v7.857h-9.286v-7.857z" fill="#e3f2fd"/><path d="M16.429 16.429h7.857v6.428h-7.857V16.43z" fill="#1e88e5"/><path d="M15 10a2.143 2.143 0 100 4.286A2.143 2.143 0 0015 10zm-8.571 0a2.143 2.143 0 100 4.286 2.143 2.143 0 000-4.286zm17.142 0a2.143 2.143 0 100 4.286 2.143 2.143 0 000-4.286z" fill="#558b2f"/><path d="M12.857 6.429h4.286v5.714h-4.286V6.429zm-8.571 5.714H8.57l.715-5.714H5.714l-1.428 5.714zm21.428 0H21.43l-.715-5.714h3.572l1.428 5.714z" fill="#7cb342"/><path d="M10.714 10a2.143 2.143 0 100 4.286 2.143 2.143 0 000-4.286zm-8.571 0c1.214 0 2.143.929 2.143 2.143 0 1.214-.929 2.143-2.143 2.143C.929 14.286 0 13.357 0 12.143L2.143 10zm17.143 0a2.143 2.143 0 100 4.286 2.143 2.143 0 000-4.286zm8.571 0c-1.214 0-2.143.929-2.143 2.143 0 1.214.929 2.143 2.143 2.143 1.214 0 2.143-.929 2.143-2.143L27.857 10z" fill="#ffa000"/><path d="M8.571 12.143h4.286V6.429H9.286l-.715 5.714zm-8.571 0h4.286l1.428-5.714H2.143L0 12.143zm21.429 0h-4.286V6.429h3.571l.715 5.714zm8.571 0h-4.286l-1.428-5.714h3.571L30 12.143z" fill="#ffc107"/><path d="M5 15.714h7.857v11.429H5V15.714z" fill="#455a64"/><path d="M6.429 22.143v1.428c0 .215.142.358.357.358.214 0 .357-.143.357-.358v-1.428c0-.214-.143-.357-.357-.357-.215 0-.357.143-.357.357z" fill="#90a4ae"/></svg>
